public/logos/FZ.svg

<?xml version="1.0" encoding="UTF-8"?>
<svg xmlns="http://www.w3.org/2000/svg" xmlns:xlink="http://www.w3.org/1999/xlink" width="176pt" height="36.24pt" viewBox="0 0 176 36.24" version="1.1">
<defs>
<clipPath id="clip1">
  <path d="M 0 0 L 47 0 L 47 36.238281 L 0 36.238281 Z M 0 0 "/>
</clipPath>
</defs>
<g id="surface1">
<g clip-path="url(#clip1)" clip-rule="nonzero">
<path style=" stroke:none;fill-rule:nonzero;fill:rgb(96.266174%,50.917053%,8.476257%);fill-opacity:1;" d="M 7.191406 1.300781 C 5.449219 2.367188 4.304688 3.035156 4.304688 7.074219 L 4.304688 8.183594 L 0 8.183594 L 0 10.402344 L 4.304688 10.402344 C 4.304688 17.789062 4.304688 30.167969 4.304688 30.167969 L 7.636719 30.167969 L 7.636719 10.402344 L 12.964844 10.402344 L 12.964844 8.183594 L 7.636719 8.183594 L 7.636719 4.410156 C 7.636719 4.410156 8.523438 2.1875 13.1875 2.1875 C 17.851562 2.1875 18.515625 4.1875 18.515625 4.1875 L 18.515625 30.167969 L 21.625 30.167969 C 21.625 30.167969 21.625 1.894531 21.625 1.300781 C 13.222656 -1 8.933594 0.230469 7.191406 1.300781 Z M 43.390625 8.183594 C 43.390625 8.183594 43.390625 18.84375 43.390625 22.839844 C 43.390625 26.835938 42.722656 27.503906 36.726562 27.503906 C 30.730469 27.503906 30.730469 23.726562 30.730469 23.726562 L 30.730469 8.183594 L 26.957031 8.183594 C 26.957031 8.183594 26.957031 22.175781 26.957031 25.726562 C 26.957031 29.277344 32.285156 30.167969 37.613281 30.167969 C 42.945312 30.167969 43.167969 27.726562 43.167969 27.726562 L 43.167969 36.238281 L 46.941406 36.238281 L 46.941406 8.183594 L 43.390625 8.183594 "/>
</g>
<path style=" stroke:none;fill-rule:nonzero;fill:rgb(96.266174%,50.917053%,8.476257%);fill-opacity:1;" d="M 172.632812 10.105469 C 170.769531 10.105469 169.261719 11.617188 169.261719 13.476562 C 169.261719 15.335938 170.769531 16.84375 172.632812 16.84375 C 174.492188 16.84375 176 15.335938 176 13.476562 C 176 11.617188 174.492188 10.105469 172.632812 10.105469 "/>
<path style=" stroke:none;fill-rule:nonzero;fill:rgb(18.513489%,40.942383%,70.155334%);fill-opacity:1;" d="M 132.214844 22.210938 C 131.769531 25.503906 131.324219 28.835938 140.210938 30.167969 C 149.09375 31.5 153.089844 27.726562 153.089844 27.726562 L 153.53125 17.066406 C 153.53125 17.066406 156.640625 15.511719 158.417969 15.734375 C 158.417969 21.285156 158.417969 30.167969 158.417969 30.167969 L 164.191406 30.167969 L 164.191406 15.734375 C 164.191406 15.734375 164.636719 14.625 165.746094 13.957031 C 165.746094 13.957031 137.320312 10.480469 132.214844 22.210938 Z M 147.535156 24.839844 C 147.535156 24.839844 134.324219 28.851562 139.320312 20.175781 C 140.878906 18.175781 147.535156 18.15625 147.535156 18.15625 Z M 134.214844 13.476562 C 134.214844 13.476562 138.210938 11.292969 141.765625 11.292969 C 145.316406 11.292969 147.09375 12.382812 147.09375 12.382812 L 153.3125 12.382812 C 153.3125 12.382812 153.976562 9.738281 147.535156 8.183594 C 141.097656 6.628906 133.992188 8.183594 133.101562 9.292969 C 132.214844 11.292969 132.195312 14.398438 134.214844 13.476562 Z M 69.148438 9.292969 C 66.707031 6.628906 55.601562 5.519531 52.9375 13.476562 C 50.273438 21.433594 53.382812 29.5 60.484375 30.453125 C 67.59375 31.402344 75.589844 27.726562 75.589844 27.726562 L 75.589844 1.296875 L 69.148438 1.296875 C 69.148438 1.296875 69.148438 4.851562 69.148438 9.292969 Z M 63.707031 25.765625 C 60.457031 25.765625 57.820312 22.46875 57.820312 18.398438 C 57.820312 14.328125 60.457031 11.03125 63.707031 11.03125 C 66.957031 11.03125 69.59375 14.328125 69.59375 18.398438 C 69.59375 22.46875 66.957031 25.765625 63.707031 25.765625 Z M 113.214844 9.292969 C 113.214844 4.851562 113.214844 1.296875 113.214844 1.296875 L 106.773438 1.296875 L 106.773438 27.726562 C 106.773438 27.726562 114.769531 31.402344 121.875 30.453125 C 128.980469 29.5 132.089844 21.433594 129.425781 13.476562 C 126.761719 5.519531 115.65625 6.628906 113.214844 9.292969 Z M 118.652344 25.765625 C 115.402344 25.765625 112.769531 22.46875 112.769531 18.398438 C 112.769531 14.328125 115.402344 11.03125 118.652344 11.03125 C 121.90625 11.03125 124.539062 14.328125 124.539062 18.398438 C 124.539062 22.46875 121.90625 25.765625 118.652344 25.765625 Z M 164.191406 8.183594 L 158.195312 8.183594 L 158.195312 11.960938 L 164.191406 11.960938 Z M 95.351562 24.617188 C 95.351562 24.617188 93.796875 26.835938 91.355469 26.835938 C 88.910156 26.835938 86.46875 25.765625 86.46875 25.765625 L 86.46875 8.183594 L 80.25 8.183594 C 80.25 8.183594 80.25 24.171875 80.25 25.765625 C 80.25 27.355469 81.804688 30.609375 90.6875 30.609375 C 99.570312 30.609375 101.347656 26.835938 101.347656 26.835938 L 101.347656 8.183594 L 95.351562 8.183594 L 95.351562 24.617188 "/>
</g>
</svg>

<svg xmlns="http://www.w3.org/2000/svg" width="176pt" height="48.32" viewBox="0 0 176 36.24"><defs><clipPath id="a"><path d="M0 0h47v36.238H0Zm0 0"/></clipPath></defs><g clip-path="url(#a)"><path d="M7.191 1.3C5.45 2.368 4.305 3.036 4.305 7.075v1.11H0v2.218h4.305v19.766h3.332V10.402h5.328V8.184H7.637V4.41s.886-2.222 5.55-2.222c4.665 0 5.329 2 5.329 2v25.98h3.109V1.301C13.223-1 8.934.23 7.191 1.3m36.2 6.884V22.84c0 3.996-.668 4.664-6.664 4.664-5.997 0-5.997-3.777-5.997-3.777V8.184h-3.773v17.543c0 3.55 5.328 4.441 10.656 4.441 5.332 0 5.555-2.441 5.555-2.441v8.511h3.773V8.184z" style="stroke:none;fill-rule:nonzero;fill:#f58216;fill-opacity:1"/></g><path d="M172.633 10.105a3.368 3.368 0 1 0 0 6.738A3.37 3.37 0 0 0 176 13.478a3.37 3.37 0 0 0-3.367-3.372" style="stroke:none;fill-rule:nonzero;fill:#f58216;fill-opacity:1"/><path d="M132.215 22.21c-.445 3.294-.89 6.626 7.996 7.958 8.883 1.332 12.879-2.441 12.879-2.441l.441-10.66s3.11-1.555 4.887-1.333v14.434h5.773V15.734s.446-1.109 1.555-1.777c0 0-28.426-3.477-33.531 8.254m15.32 2.63s-13.21 4.012-8.215-4.664c1.559-2 8.215-2.02 8.215-2.02Zm-13.32-11.363s3.996-2.184 7.55-2.184c3.551 0 5.329 1.09 5.329 1.09h6.219s.664-2.645-5.778-4.2c-6.437-1.554-13.543 0-14.433 1.11-.887 2-.907 5.105 1.113 4.184M69.148 9.293c-2.441-2.664-13.546-3.773-16.21 4.184s.445 16.023 7.546 16.976c7.11.95 15.106-2.726 15.106-2.726V1.297h-6.442zm-5.441 16.473c-3.25 0-5.887-3.297-5.887-7.368s2.637-7.367 5.887-7.367 5.887 3.297 5.887 7.367-2.637 7.368-5.887 7.368m49.508-16.473V1.297h-6.442v26.43s7.997 3.675 15.102 2.726c7.105-.953 10.215-9.02 7.55-16.976-2.663-7.957-13.769-6.848-16.21-4.184m5.437 16.473c-3.25 0-5.882-3.297-5.882-7.368s2.632-7.367 5.882-7.367c3.254 0 5.887 3.297 5.887 7.367s-2.633 7.368-5.887 7.368m45.54-17.582h-5.997v3.777h5.996Zm-68.84 16.433s-1.555 2.219-3.997 2.219c-2.445 0-4.886-1.07-4.886-1.07V8.184H80.25v17.582c0 1.59 1.555 4.843 10.438 4.843 8.882 0 10.66-3.773 10.66-3.773V8.184h-5.996z" style="stroke:none;fill-rule:nonzero;fill:#2f68b3;fill-opacity:1"/></svg>
